salty/data/hike_heart.svg

<svg height="36" width="36">
<path
d="M 18 1 C 17.972847 1 17.945854 1.0181375 17.927734 1.0546875 C 16.588011 3.2467275 13.076238 7.5949775 9.78125 10.773438 C 7.065599 13.403887 2.7558594 17.313084 2.7558594 22.683594 C 2.7558594 27.652234 6.1964277 31.488281 10.324219 31.488281 C 13.727827 31.488281 16.732102 29.697858 17.818359 25.642578 C 17.85457 25.532978 17.891372 25.386719 18 25.386719 C 18.108623 25.386719 18.145401 25.532978 18.181641 25.642578 C 19.231693 29.697858 22.272165 31.488281 25.675781 31.488281 C 29.803565 31.488281 33.244141 27.652234 33.244141 22.683594 C 33.244141 17.276554 28.934402 13.403887 26.21875 10.773438 C 22.923762 7.5949775 19.411989 3.2467275 18.072266 1.0546875 C 18.054163 1.0181375 18.027153 1 18 1 z "
fill="#f00"
stroke="#000"
stroke-width="2"
paint-order="stroke fill markers"/></svg>

<svg width="36" height="36" version="1.1" xmlns="http://www.w3.org/2000/svg">
<path d="m18 1c-.027153 0-.054146.018138-.072266.054688-1.3397 2.192-4.8515 6.5403-8.1465 9.7188-2.7157 2.6304-7.0254 6.5396-7.0254 11.91 0 4.9686 3.4406 8.8047 7.5684 8.8047 3.4036 0 6.4079-1.7904 7.4941-5.8457.036211-.1096.073013-.25586.18164-.25586.10862 0 .1454.14626.18164.25586 1.0501 4.0553 4.0905 5.8457 7.4941 5.8457 4.1278 0 7.5684-3.836 7.5684-8.8047 0-5.407-4.3097-9.2797-7.0254-11.91-3.295-3.1785-6.8068-7.5267-8.1465-9.7188-.018103-.03655-.045113-.054688-.072266-.054688z" fill="#f00" stroke="#000" stroke-width="2" paint-order="stroke fill markers"/>
</svg>
